src/shared/assets/icons/reviews.svg

<svg width="32" height="32" viewBox="0 0 32 32" fill="none" xmlns="http://www.w3.org/2000/svg">
<g id="Frame" clip-path="url(#clip0_684_780)">
<g id="XMLID_1083_">
<g id="XMLID_277_">
<path id="XMLID_292_" d="M12.6366 10.2599L12.4323 10.3441C12.0884 9.74331 11.4414 9.33731 10.701 9.33731H7.53733C6.43789 9.33731 5.54346 10.2318 5.54346 11.3312V20.3291C5.54346 21.4286 6.43796 22.323 7.53733 22.323H10.701C11.3273 22.323 11.8869 22.0324 12.2527 21.5792C13.3536 22.0669 14.5559 22.323 15.7605 22.323H22.4453C23.5664 22.323 24.4785 21.4109 24.4785 20.2897C24.4785 19.939 24.3892 19.6087 24.2322 19.3204C24.931 18.9983 25.4174 18.2916 25.4174 17.4731C25.4174 17.1367 25.3348 16.8194 25.1895 16.5396C25.9321 16.2364 26.4569 15.5067 26.4569 14.6565C26.4569 13.8062 25.9321 13.0766 25.1895 12.7735C25.3348 12.4937 25.4174 12.1764 25.4174 11.8399C25.4174 10.7188 24.5053 9.80663 23.3841 9.80663H20.0535C19.7386 9.80663 19.4825 9.5505 19.4825 9.23569V7.39713C19.4825 5.56413 17.9913 4.07288 16.1583 4.07288C15.3545 4.07288 14.7006 4.72681 14.7006 5.53056V7.17731C14.7005 8.53344 13.8904 9.74344 12.6366 10.2599ZM10.7009 21.073H7.53727C7.12708 21.073 6.79339 20.7392 6.79339 20.3291V11.3312C6.79339 10.9211 7.12708 10.5873 7.53727 10.5873H10.7009C11.1111 10.5873 11.4448 10.9211 11.4448 11.3312V20.3291C11.4448 20.7392 11.1111 21.073 10.7009 21.073ZM15.9505 7.17744V5.53069C15.9505 5.41619 16.0437 5.323 16.1582 5.323C17.302 5.323 18.2325 6.2535 18.2325 7.39725V9.23581C18.2325 10.2399 19.0493 11.0568 20.0534 11.0568H23.3841C23.816 11.0568 24.1673 11.4081 24.1673 11.8401C24.1673 12.2719 23.816 12.6233 23.3841 12.6233H19.4833C19.1382 12.6233 18.8583 12.9031 18.8583 13.2483C18.8583 13.5934 19.1382 13.8733 19.4833 13.8733H24.4235C24.8555 13.8733 25.2068 14.2247 25.2068 14.6566C25.2068 15.0885 24.8555 15.4399 24.4235 15.4399H19.4833C19.1382 15.4399 18.8583 15.7197 18.8583 16.0649C18.8583 16.41 19.1382 16.6899 19.4833 16.6899H23.3841C23.816 16.6899 24.1673 17.0413 24.1673 17.4731C24.1673 17.905 23.816 18.2564 23.3841 18.2564H19.4833C19.1382 18.2564 18.8583 18.5362 18.8583 18.8814C18.8583 19.2265 19.1382 19.5064 19.4833 19.5064H22.4453C22.8771 19.5064 23.2285 19.8577 23.2285 20.2897C23.2285 20.7216 22.8771 21.0729 22.4453 21.0729H15.7604C14.7054 21.0729 13.6527 20.8427 12.6928 20.4059C12.6938 20.3804 12.6948 20.3548 12.6948 20.3291V11.5878L13.1127 11.4157C14.8366 10.7055 15.9505 9.04194 15.9505 7.17744Z" fill="#FF9846"/>
<path id="XMLID_297_" d="M26.375 1.25H18.8125C18.4674 1.25 18.1875 1.52988 18.1875 1.875C18.1875 2.22012 18.4674 2.5 18.8125 2.5H26.375C28.7874 2.5 30.75 4.46263 30.75 6.875V21.375C30.75 23.7874 28.7874 25.75 26.375 25.75H18.1651C17.9418 25.75 17.7354 25.8691 17.6238 26.0625L16 28.875L14.3762 26.0625C14.2646 25.8691 14.0582 25.75 13.8349 25.75H5.625C3.21263 25.75 1.25 23.7874 1.25 21.375V6.875C1.25 4.46263 3.21263 2.5 5.625 2.5H13.1874C13.5326 2.5 13.8124 2.22012 13.8124 1.875C13.8124 1.52988 13.5326 1.25 13.1874 1.25H5.625C2.52338 1.25 0 3.77338 0 6.875V21.375C0 24.4766 2.52338 27 5.625 27H13.4741L15.4587 30.4375C15.5703 30.6309 15.7766 30.75 15.9999 30.75C16.2232 30.75 16.4296 30.6309 16.5412 30.4375L18.5258 27H26.375C29.4766 27 32 24.4766 32 21.375V6.875C32 3.77338 29.4766 1.25 26.375 1.25Z" fill="#FF9846"/>
<path id="XMLID_298_" d="M16 2.5C16.1644 2.5 16.325 2.43313 16.4418 2.31681C16.5581 2.20063 16.625 2.03938 16.625 1.875C16.625 1.71062 16.5581 1.54938 16.4418 1.43313C16.3256 1.31681 16.1644 1.25 16 1.25C15.8356 1.25 15.6744 1.31681 15.5581 1.43313C15.4419 1.54938 15.375 1.71062 15.375 1.875C15.375 2.03938 15.4419 2.20063 15.5581 2.31681C15.6744 2.43313 15.8356 2.5 16 2.5Z" fill="#FF9846"/>
</g>
</g>
</g>
<defs>
<clipPath id="clip0_684_780">
<rect width="32" height="32" fill="white"/>
</clipPath>
</defs>
</svg>

<!-- Generated by IcoMoon.io -->
<svg version="1.1" xmlns="http://www.w3.org/2000/svg" width="32" height="32" viewBox="0 0 32 32">
<title>reviews</title>
<path d="M12.637 10.26l-0.204 0.084c-0.344-0.601-0.991-1.007-1.731-1.007h-3.164c-1.099 0-1.994 0.895-1.994 1.994v8.998c0 1.099 0.894 1.994 1.994 1.994h3.164c0.626 0 1.186-0.291 1.552-0.744 1.101 0.488 2.303 0.744 3.508 0.744h6.685c1.121 0 2.033-0.912 2.033-2.033 0-0.351-0.089-0.681-0.246-0.969 0.699-0.322 1.185-1.029 1.185-1.847 0-0.336-0.083-0.654-0.228-0.933 0.743-0.303 1.267-1.033 1.267-1.883s-0.525-1.58-1.267-1.883c0.145-0.28 0.228-0.597 0.228-0.934 0-1.121-0.912-2.033-2.033-2.033h-3.331c-0.315 0-0.571-0.256-0.571-0.571v-1.839c0-1.833-1.491-3.324-3.324-3.324-0.804 0-1.458 0.654-1.458 1.458v1.647c-0 1.356-0.81 2.566-2.064 3.083zM10.701 21.073h-3.164c-0.41 0-0.744-0.334-0.744-0.744v-8.998c0-0.41 0.334-0.744 0.744-0.744h3.164c0.41 0 0.744 0.334 0.744 0.744v8.998c0 0.41-0.334 0.744-0.744 0.744zM15.95 7.177v-1.647c0-0.114 0.093-0.208 0.208-0.208 1.144 0 2.074 0.931 2.074 2.074v1.839c0 1.004 0.817 1.821 1.821 1.821h3.331c0.432 0 0.783 0.351 0.783 0.783s-0.351 0.783-0.783 0.783h-3.901c-0.345 0-0.625 0.28-0.625 0.625s0.28 0.625 0.625 0.625h4.94c0.432 0 0.783 0.351 0.783 0.783s-0.351 0.783-0.783 0.783h-4.94c-0.345 0-0.625 0.28-0.625 0.625s0.28 0.625 0.625 0.625h3.901c0.432 0 0.783 0.351 0.783 0.783s-0.351 0.783-0.783 0.783h-3.901c-0.345 0-0.625 0.28-0.625 0.625s0.28 0.625 0.625 0.625h2.962c0.432 0 0.783 0.351 0.783 0.783s-0.351 0.783-0.783 0.783h-6.685c-1.055 0-2.108-0.23-3.068-0.667 0.001-0.026 0.002-0.051 0.002-0.077v-8.741l0.418-0.172c1.724-0.71 2.838-2.374 2.838-4.238z"></path>
<path d="M26.375 1.25h-7.563c-0.345 0-0.625 0.28-0.625 0.625s0.28 0.625 0.625 0.625h7.563c2.412 0 4.375 1.963 4.375 4.375v14.5c0 2.412-1.963 4.375-4.375 4.375h-8.21c-0.223 0-0.43 0.119-0.541 0.313l-1.624 2.813-1.624-2.813c-0.112-0.193-0.318-0.313-0.541-0.313h-8.21c-2.412 0-4.375-1.963-4.375-4.375v-14.5c0-2.412 1.963-4.375 4.375-4.375h7.562c0.345 0 0.625-0.28 0.625-0.625s-0.28-0.625-0.625-0.625h-7.562c-3.102 0-5.625 2.523-5.625 5.625v14.5c0 3.102 2.523 5.625 5.625 5.625h7.849l1.985 3.438c0.112 0.193 0.318 0.313 0.541 0.313s0.43-0.119 0.541-0.313l1.985-3.438h7.849c3.102 0 5.625-2.523 5.625-5.625v-14.5c0-3.102-2.523-5.625-5.625-5.625z"></path>
<path d="M16 2.5c0.164 0 0.325-0.067 0.442-0.183s0.183-0.277 0.183-0.442-0.067-0.326-0.183-0.442c-0.116-0.116-0.277-0.183-0.442-0.183s-0.326 0.067-0.442 0.183c-0.116 0.116-0.183 0.278-0.183 0.442s0.067 0.326 0.183 0.442c0.116 0.116 0.277 0.183 0.442 0.183z"></path>
</svg>
